X: 24626
T: Mac's Fancy
R: jig
M: 6/8
K: Amixolydian
|:e3 fed|eAA Bcd|e2f gfe|dBG Bcd|
eAA fed|eAA Bcd|g3 gfe|dBG GBd:|
|:A2 a aea|aea aec|A2 a aef|g3 gdB|
[1 A2 a aea|aea aef|g3 gfe|dBG GBd:|
[2Aaa Agg|Aff e2f|g3 gfe|dBG GBd||

